images_sukapura_svg/cmd/sc_printpreview.svg

<svg viewBox="0 0 16 16" xmlns="http://www.w3.org/2000/svg" xmlns:xlink="http://www.w3.org/1999/xlink"><linearGradient id="a" gradientUnits="userSpaceOnUse" x1="-13.745763" x2="-13.429676" y1="12.311074" y2="3.158532"><stop offset="0" stop-color="#0040dd"/><stop offset="1" stop-color="#0a84ff"/></linearGradient><linearGradient id="b" gradientUnits="userSpaceOnUse" x1="10" x2="11.500001" y1="4" y2="2.499999"><stop offset="0" stop-color="#fff"/><stop offset=".77967989" stop-color="#f1f1f1"/><stop offset="1" stop-color="#d5d5d5"/></linearGradient><radialGradient id="c" cx="10.994179" cy="4.42844" gradientTransform="matrix(1.4 .00000004 -.00000001 1.2 -4.39185 -2.314129)" gradientUnits="userSpaceOnUse" r="5"><stop offset="0" stop-color="#d7d7d7"/><stop offset=".49894297" stop-color="#f7f7f7"/><stop offset="1" stop-color="#fff"/></radialGradient><path d="m3 1v14h10v-11.2949219l-2.695312-2.7050781z" fill="url(#c)"/><path d="m3 0c-.554 0-1 .446-1 1v14c0 .554.446 1 1 1h10c.554 0 1-.446 1-1v-10.5-.8632812l-3.636719-3.6367188h-.863281zm0 1h6v3.5c0 .277.223.5.5.5h3.5v10h-10zm7 0 3 3h-3z" fill="#98989d"/><path d="m10 1 3 3h-3z" fill="url(#b)"/><path d="m10.5 6c-2.4734367 0-4.5 2.0265633-4.5 4.5 0 2.164257 1.5507969 3.98649 3.5957031 4.408203.2921295.060245.5951169.091797.9042969.091797h.002c.618243-.000921 1.161685-.310862 1.722656-.554688l.558547.554688.796875.792969c.248261-.181617.419922-.460452.419922-.792969v-7.2871094l-1-.9472656c-.0055-.00373-.01198-.00607-.01758-.00977-.206779-.1378597-.427635-.2526446-.656248-.3554644-.07257-.032632-.146193-.0610177-.220703-.0898437-.179989-.0697265-.364617-.1275561-.554688-.1738281-.081271-.0197401-.16126-.0394675-.24414-.0546876-.262602-.048401-.530728-.0820312-.806641-.0820312zm0 3c.840272 0 1.5.6597282 1.5 1.5 0 .840272-.659728 1.5-1.5 1.5-.8402718 0-1.5-.659728-1.5-1.5 0-.105034.0096163-.208185.0292969-.306641.1377642-.689191.7354653-1.193359 1.4707031-1.193359z" fill="#fff" fill-opacity=".784314"/><path d="m10.5 7c-1.9329966 0-3.5 1.5670034-3.5 3.5 0 1.932997 1.5670034 3.5 3.5 3.5.588306-.000886 1.161817-.156975 1.673828-.4375l2.257813 2.289062c.194552.197176.509855.198459.707031.0039l.71289-.703125c.197176-.194553.198459-.509856.0039-.707032l-2.273431-2.302727c.269526-.503792.416889-1.06634.417969-1.642578 0-1.9329966-1.567003-3.5-3.5-3.5zm0 1c1.380712 0 2.5 1.1192881 2.5 2.5 0 1.380712-1.119288 2.5-2.5 2.5-1.3807119 0-2.5-1.119288-2.5-2.5 0-1.3807119 1.1192881-2.5 2.5-2.5z" fill="url(#a)"/></svg>

<?xml version="1.0" encoding="UTF-8" standalone="no"?>
<svg
   xmlns:dc="http://purl.org/dc/elements/1.1/"
   xmlns:cc="http://creativecommons.org/ns#"
   xmlns:rdf="http://www.w3.org/1999/02/22-rdf-syntax-ns#"
   xmlns:svg="http://www.w3.org/2000/svg"
   xmlns="http://www.w3.org/2000/svg"
   xmlns:xlink="http://www.w3.org/1999/xlink"
   xmlns:sodipodi="http://sodipodi.sourceforge.net/DTD/sodipodi-0.dtd"
   xmlns:inkscape="http://www.inkscape.org/namespaces/inkscape"
   viewBox="0 0 16 16"
   version="1.1"
   id="svg22"
   sodipodi:docname="sc_printpreview.svg"
   inkscape:version="0.92.3 (2405546, 2018-03-11)">
  <metadata
     id="metadata28">
    <rdf:RDF>
      <cc:Work
         rdf:about="">
        <dc:format>image/svg+xml</dc:format>
        <dc:type
           rdf:resource="http://purl.org/dc/dcmitype/StillImage" />
        <dc:title></dc:title>
      </cc:Work>
    </rdf:RDF>
  </metadata>
  <defs
     id="defs26">
    <radialGradient
       id="a-2"
       cx="11"
       cy="4.4285712"
       gradientTransform="matrix(1,0,0,1.3999997,0,-3.199998)"
       gradientUnits="userSpaceOnUse"
       r="5.000001">
      <stop
         offset="0"
         stop-color="#d7d7d7"
         id="stop2-5" />
      <stop
         offset=".29999998"
         stop-color="#f7f7f7"
         id="stop4-7" />
      <stop
         offset="1"
         stop-color="#fff"
         id="stop6-4" />
    </radialGradient>
    <linearGradient
       inkscape:collect="always"
       xlink:href="#a-9"
       id="linearGradient859"
       x1="7.1355934"
       y1="15.972091"
       x2="7.4516802"
       y2="6.8195486"
       gradientUnits="userSpaceOnUse" />
    <linearGradient
       gradientTransform="translate(-20.881356,-3.6610169)"
       id="a-9"
       gradientUnits="userSpaceOnUse"
       x1="14"
       x2="13.79661"
       y1="22"
       y2="2.1355929">
      <stop
         offset="0"
         stop-color="#0040dd"
         id="stop2206" />
      <stop
         offset="1"
         stop-color="#0a84ff"
         id="stop2208" />
    </linearGradient>
  </defs>
  <sodipodi:namedview
     pagecolor="#ffffff"
     bordercolor="#666666"
     borderopacity="1"
     objecttolerance="10"
     gridtolerance="10"
     guidetolerance="10"
     inkscape:pageopacity="0"
     inkscape:pageshadow="2"
     inkscape:window-width="1366"
     inkscape:window-height="685"
     id="namedview24"
     showgrid="false"
     inkscape:zoom="20.85965"
     inkscape:cx="10.058701"
     inkscape:cy="7.5145159"
     inkscape:window-x="0"
     inkscape:window-y="0"
     inkscape:window-maximized="1"
     inkscape:current-layer="g838" />
  <linearGradient
     id="a"
     gradientUnits="userSpaceOnUse"
     x1="10"
     x2="11.5000006"
     y1="4"
     y2="2.4999994">
    <stop
       offset="0"
       stop-color="#fff"
       id="stop2" />
    <stop
       offset=".77967989"
       stop-color="#f1f1f1"
       id="stop4" />
    <stop
       offset="1"
       stop-color="#d5d5d5"
       id="stop6" />
  </linearGradient>
  <radialGradient
     id="b"
     cx="10.994179"
     cy="4.42844"
     gradientTransform="matrix(1.4 .00000004 -.00000001 1.2 -4.39185 -2.314129)"
     gradientUnits="userSpaceOnUse"
     r="5">
    <stop
       offset="0"
       stop-color="#d7d7d7"
       id="stop9" />
    <stop
       offset=".49894297"
       stop-color="#f7f7f7"
       id="stop11" />
    <stop
       offset="1"
       stop-color="#fff"
       id="stop13" />
  </radialGradient>
  <g
     id="g838">
    <path
       id="path16"
       fill="url(#b)"
       d="m3 1v14h10v-11.2949219l-2.695312-2.7050781z" />
    <path
       id="path18"
       fill="#98989d"
       d="m3 0c-.554 0-1 .446-1 1v14c0 .554.446 1 1 1h10c.554 0 1-.446 1-1v-10.5-.8632812l-3.636719-3.6367188h-.863281zm0 1h6v3.5c0 .277.223.5.5.5h3.5v10h-10zm7 0 3 3h-3z" />
    <path
       id="path20"
       fill="url(#a)"
       d="m10 1 3 3h-3z" />
    <path
       style="fill:#ffffff;fill-opacity:0.78431373"
       d="M 10.5,6 C 8.0265633,6 6,8.0265633 6,10.5 6,12.664257 7.5507969,14.48649 9.5957031,14.908203 9.8878326,14.968448 10.19082,15 10.5,15 h 0.002 c 0.618243,-9.21e-4 1.161685,-0.310862 1.722656,-0.554688 L 12.783203,15 v 0 l 0.796875,0.792969 C 13.828339,15.611352 14,15.332517 14,15 V 7.7128906 L 13,6.765625 c -0.0055,-0.00373 -0.01198,-0.00607 -0.01758,-0.00977 C 12.775641,6.6179953 12.554785,6.5032104 12.326172,6.4003906 12.253602,6.3677586 12.179979,6.3393729 12.105469,6.3105469 11.92548,6.2408204 11.740852,6.1829908 11.550781,6.1367188 11.46951,6.1169787 11.389521,6.0972513 11.306641,6.0820312 11.044039,6.0336302 10.775913,6 10.5,6 Z m 0,3 C 11.340272,9 12,9.6597282 12,10.5 12,11.340272 11.340272,12 10.5,12 9.6597282,12 9,11.340272 9,10.5 9,10.394966 9.0096163,10.291815 9.0292969,10.193359 9.1670611,9.504168 9.7647622,9 10.5,9 Z"
       id="path16-9"
       inkscape:connector-curvature="0"
       sodipodi:nodetypes="sssscccccscccccccsssssss" />
    <path
       inkscape:connector-curvature="0"
       style="fill:url(#linearGradient859);fill-opacity:1"
       d="M 10.5,7 C 8.5670034,7 7,8.5670034 7,10.5 c 0,1.932997 1.5670034,3.5 3.5,3.5 0.588306,-8.86e-4 1.161817,-0.156975 1.673828,-0.4375 l 2.257813,2.289062 c 0.194552,0.197176 0.509855,0.198459 0.707031,0.0039 l 0.71289,-0.703125 c 0.197176,-0.194553 0.198459,-0.509856 0.0039,-0.707032 L 13.582031,12.142578 C 13.851557,11.638786 13.99892,11.076238 14,10.5 14,8.5670034 12.432997,7 10.5,7 Z m 0,1 C 11.880712,8 13,9.1192881 13,10.5 13,11.880712 11.880712,13 10.5,13 9.1192881,13 8,11.880712 8,10.5 8,9.1192881 9.1192881,8 10.5,8 Z"
       id="path18-9" />
  </g>
</svg>
